<?xml version="1.0" encoding="UTF-8"?>
<map version="1.10" tiledversion="1.11.2" orientation="orthogonal" renderorder="right-down" width="170" height="67" tilewidth="20" tileheight="20" infinite="0" nextlayerid="2" nextobjectid="1">
 <tileset firstgid="1" name="ground2 - Copy" tilewidth="20" tileheight="20" tilecount="2360" columns="236">
  <image source="../Images/ground2 - Copy.png" width="4732" height="200"/>
 </tileset>
 <layer id="1" name="Tile Layer 1" width="170" height="67">
  <data encoding="csv">
0,0,0,0,0,0,0,0,0,0,0,0,0,0,0,0,0,0,0,0,0,0,0,0,0,0,0,0,0,0,0,0,0,0,0,0,0,0,0,0,0,0,0,0,0,0,0,0,0,0,0,0,0,0,0,0,0,0,0,0,0,0,0,0,0,0,0,0,0,0,0,0,0,0,0,0,0,0,0,0,0,0,0,0,0,0,0,0,0,0,0,0,0,0,0,0,0,0,0,0,0,0,0,0,0,0,0,0,0,0,0,0,0,0,0,0,0,0,0,0,0,0,0,0,0,0,0,0,0,0,0,0,0,0,0,0,0,0,0,0,0,0,0,0,0,0,0,0,0,0,0,0,0,0,0,0,0,0,0,0,0,0,0,0,0,0,0,0,0,0,
0,0,0,0,0,0,0,0,0,0,0,0,0,0,0,0,0,0,0,0,0,0,0,0,0,0,0,0,0,0,0,0,0,0,0,0,0,0,0,0,0,0,0,0,0,0,0,0,0,0,0,0,0,0,0,0,0,0,0,0,0,0,0,0,0,0,0,0,0,0,0,0,0,0,0,0,0,0,0,0,0,0,0,0,0,0,0,0,0,0,0,0,0,0,0,0,0,0,0,0,0,0,0,0,0,0,0,0,0,0,0,0,0,0,0,0,0,0,0,0,0,0,0,0,0,0,0,0,0,0,0,0,0,0,0,0,0,0,0,0,0,0,0,0,0,0,0,0,0,0,0,0,0,0,0,0,0,0,0,0,0,0,0,0,0,0,0,0,0,0,
0,0,0,0,0,0,0,0,0,0,0,0,0,0,0,0,0,0,0,0,0,0,0,0,0,0,0,0,0,0,0,0,0,0,0,0,0,0,0,0,0,0,0,0,0,0,0,0,0,0,0,0,0,0,0,0,0,0,0,0,0,0,0,0,0,0,0,0,0,0,0,0,0,0,0,0,0,0,0,0,0,0,0,0,0,0,0,0,0,0,0,0,0,0,0,0,0,0,0,0,0,0,0,0,0,0,0,0,0,0,0,0,0,0,0,0,0,0,0,0,0,0,0,0,0,0,0,0,0,0,0,0,0,0,0,0,0,0,0,0,0,0,0,0,0,0,0,0,0,0,0,0,0,0,0,0,0,0,0,0,0,0,0,0,0,0,0,0,0,0,
0,0,0,0,0,0,0,0,0,0,0,0,0,0,0,0,0,0,0,0,0,0,0,0,0,0,0,0,0,0,0,0,0,0,0,0,0,0,0,0,0,0,0,0,0,0,0,0,0,0,0,0,0,0,0,0,0,0,0,0,0,0,0,0,0,0,0,0,0,0,0,0,0,0,0,0,0,0,0,0,0,0,0,0,0,0,0,0,0,0,0,0,0,0,0,0,0,0,0,0,0,0,0,0,0,0,0,0,0,0,0,0,0,0,0,0,0,0,0,0,0,0,0,0,0,0,0,0,0,0,0,0,0,0,0,0,0,0,0,0,0,0,0,0,0,0,0,0,0,0,0,0,0,0,0,0,0,0,0,0,0,0,0,0,0,0,0,0,0,0,
0,0,0,0,0,0,0,0,0,0,0,0,0,0,0,0,0,0,0,0,0,0,0,0,0,0,0,0,0,0,0,0,0,0,0,0,0,0,0,0,0,0,0,0,0,0,0,0,0,0,0,0,0,0,0,0,0,0,0,0,0,0,0,0,0,0,0,0,0,0,0,0,0,0,0,0,0,0,0,0,0,0,0,0,0,0,0,0,0,0,0,0,0,0,0,0,0,0,0,0,0,0,0,0,0,0,0,0,0,0,0,0,0,0,0,0,0,0,0,0,0,0,0,0,0,0,0,0,0,0,0,0,0,0,0,0,0,0,0,0,0,0,0,0,0,0,0,0,0,0,0,0,0,0,0,0,0,0,0,0,0,0,0,0,0,0,0,0,0,0,
0,0,0,0,0,0,0,0,0,0,0,0,0,0,0,0,0,0,0,0,0,0,0,0,0,0,0,0,0,0,0,0,0,0,0,0,0,0,0,0,0,0,0,0,0,0,0,0,0,0,0,0,0,0,0,0,0,0,0,0,0,0,0,0,0,0,0,0,0,0,0,0,0,0,0,0,0,0,0,0,0,0,0,0,0,0,0,0,0,0,0,0,0,0,0,0,0,0,0,0,0,0,0,0,0,0,0,0,0,0,0,0,0,0,0,0,0,0,0,0,0,0,0,0,0,0,0,0,0,0,0,0,0,0,0,0,0,0,0,0,0,0,0,0,0,0,0,0,0,0,0,0,0,0,0,0,0,0,0,0,0,0,0,0,0,0,0,0,0,0,
0,0,0,0,0,0,0,0,0,0,0,0,0,0,0,0,0,0,0,0,0,0,0,0,0,0,0,0,0,0,0,0,0,0,0,0,0,0,0,0,0,0,0,0,0,0,0,0,0,0,0,0,0,0,0,0,0,0,0,0,0,0,0,0,0,0,0,0,0,0,0,0,0,0,0,0,0,0,0,0,0,0,0,0,0,0,0,0,0,0,0,0,0,0,0,0,0,0,0,0,0,0,0,0,0,0,0,0,0,0,0,0,0,0,0,0,0,0,0,0,0,0,0,0,0,0,0,0,0,0,0,0,0,0,0,0,0,0,0,0,0,0,0,0,0,0,0,0,0,0,0,0,0,0,0,0,0,0,0,0,0,0,0,0,0,0,0,0,0,0,
0,0,0,0,0,0,0,0,0,0,0,0,0,0,0,0,0,0,0,0,0,0,0,0,0,0,0,0,0,0,0,0,0,0,0,0,0,0,0,0,0,0,0,0,0,0,0,0,0,0,0,0,0,0,0,0,0,0,0,0,0,0,0,0,0,0,0,0,0,0,0,0,0,0,0,0,0,0,0,0,0,0,0,0,0,0,0,0,0,0,0,0,0,0,0,0,0,0,0,0,0,0,0,0,0,0,0,0,0,0,0,0,0,0,0,0,0,0,0,0,0,0,0,0,0,0,0,0,0,0,0,0,0,0,0,0,0,0,0,0,0,0,0,0,0,0,0,0,0,0,0,0,0,0,0,0,0,0,0,0,0,0,0,0,0,0,0,0,0,0,
0,0,0,0,0,0,0,0,0,0,0,0,0,0,0,0,0,0,0,0,0,0,0,0,0,0,0,0,0,0,0,0,0,0,0,0,0,0,0,0,0,0,0,0,0,0,0,0,0,0,0,0,0,0,0,0,0,0,0,0,0,0,0,0,0,0,0,0,0,0,0,0,0,0,0,0,0,0,0,0,0,0,0,0,0,0,0,0,0,0,0,0,0,0,0,0,0,0,0,0,0,0,0,0,0,0,0,0,0,0,0,0,0,0,0,0,0,0,0,0,0,0,0,0,0,0,0,0,0,0,0,0,0,0,0,0,0,0,0,0,0,0,0,0,0,0,0,0,0,0,0,0,0,0,0,0,0,0,0,0,0,0,0,0,0,0,0,0,0,0,
0,0,0,0,0,0,0,0,0,0,0,0,0,0,0,0,0,0,0,0,0,0,0,0,0,0,0,0,0,0,0,0,0,0,0,0,0,0,0,0,0,0,0,0,0,0,0,0,0,0,0,0,0,0,0,0,0,0,0,0,0,0,0,0,0,0,0,0,0,0,0,0,0,0,0,0,0,0,0,0,0,0,0,0,0,0,0,0,0,0,0,0,0,0,0,0,0,0,0,0,0,0,0,0,0,0,0,0,0,0,0,0,0,0,0,0,0,0,0,0,0,0,0,0,0,0,0,0,0,0,0,0,0,0,0,0,0,0,0,0,0,0,0,0,0,0,0,0,0,0,0,0,0,0,0,0,0,0,0,0,0,0,0,0,0,0,0,0,0,0,
0,0,0,0,0,0,0,0,0,0,0,0,0,0,0,0,0,0,0,0,0,0,0,0,0,0,0,0,0,0,0,0,0,0,0,0,0,0,0,0,0,0,0,0,0,0,0,0,0,0,0,0,0,0,0,0,0,0,0,0,0,0,0,0,0,0,0,0,0,0,0,0,0,0,0,0,0,0,0,0,0,0,0,0,0,0,0,0,0,0,0,0,0,0,0,0,0,0,0,0,0,0,0,0,0,0,0,0,0,0,0,0,0,0,0,0,0,0,0,0,0,0,0,0,0,0,0,0,0,0,0,0,0,0,0,0,0,0,0,0,0,0,0,0,0,0,0,0,0,0,0,0,0,0,0,0,0,0,0,0,0,0,0,0,0,0,0,0,0,0,
0,0,0,0,0,0,0,0,0,0,0,0,0,0,0,0,0,0,0,0,0,0,0,0,0,0,0,0,0,0,0,0,0,0,0,0,0,0,0,0,0,0,0,0,0,0,0,0,0,0,0,0,0,0,0,0,0,0,0,0,0,0,0,0,0,0,0,0,0,0,0,0,0,0,0,0,0,0,0,0,0,0,0,0,0,0,0,0,0,0,0,0,0,0,0,0,0,0,0,0,0,0,0,0,0,0,0,0,0,0,0,0,0,0,0,0,0,0,0,0,0,0,0,0,0,0,0,0,0,0,0,0,0,0,0,0,0,0,0,0,0,0,0,0,0,0,0,0,0,0,0,0,0,0,0,0,0,0,0,0,0,0,0,0,0,0,0,0,0,0,
0,0,0,0,0,0,0,0,0,0,0,0,0,0,0,0,0,0,0,0,0,0,0,0,0,0,0,0,0,0,0,0,0,0,0,0,0,0,0,0,0,0,0,0,0,0,0,0,0,0,0,0,0,0,0,0,0,0,0,0,0,0,0,0,0,0,0,0,0,0,0,0,0,0,0,0,0,0,0,0,0,0,0,0,0,0,0,0,0,0,0,0,0,0,0,0,0,0,0,0,0,0,0,0,0,0,0,0,0,0,0,0,0,0,0,0,0,0,0,0,0,0,0,0,0,0,0,0,0,0,0,0,0,0,0,0,0,0,0,0,0,0,0,0,0,0,0,0,0,0,0,0,0,0,0,0,0,0,0,0,0,0,0,0,0,0,0,0,0,0,
0,0,0,0,0,0,0,0,0,0,0,0,0,0,0,0,0,0,0,0,0,0,0,0,0,0,0,0,0,0,0,0,0,0,0,0,0,0,0,0,0,0,0,0,0,0,0,0,0,0,0,0,0,0,0,0,0,0,0,0,0,0,0,0,0,0,0,0,0,0,0,0,0,0,0,0,0,0,0,0,0,0,0,0,0,0,0,0,0,0,0,0,0,0,0,0,0,0,0,0,0,0,0,0,0,0,0,0,0,0,0,0,0,0,0,0,0,0,0,0,0,0,0,0,0,0,0,0,0,0,0,0,0,0,0,0,0,0,0,0,0,0,0,0,0,0,0,0,0,0,0,0,0,0,0,0,0,0,0,0,0,0,0,0,0,0,0,0,0,0,
0,0,0,0,0,0,0,0,0,0,0,0,0,0,0,0,0,0,0,0,0,0,0,0,0,0,0,0,0,0,0,0,0,0,0,0,0,0,0,0,0,0,0,0,0,0,0,0,0,0,0,0,0,0,0,0,0,0,0,0,0,0,0,0,0,0,0,0,0,0,0,0,0,0,0,0,0,0,0,0,0,0,0,0,0,0,0,0,0,0,0,0,0,0,0,0,0,0,0,0,0,0,0,0,0,0,0,0,0,0,0,0,0,0,0,0,0,0,0,0,0,0,0,0,0,0,0,0,0,0,0,0,0,0,0,0,0,0,0,0,0,0,0,0,0,0,0,0,0,0,0,0,0,0,0,0,0,0,0,0,0,0,0,0,0,0,0,0,0,0,
0,0,0,0,0,0,0,0,0,0,0,0,0,0,0,0,0,0,0,0,0,0,0,0,0,0,0,0,0,0,0,0,0,0,0,0,0,0,0,0,0,0,0,0,0,0,0,0,0,0,0,0,0,0,0,0,0,0,0,0,0,0,0,0,0,0,0,0,0,0,0,0,0,0,0,0,0,0,0,0,0,0,0,0,0,0,0,0,0,0,0,0,0,0,0,0,0,0,0,0,0,0,0,0,0,0,0,0,0,0,0,0,0,0,0,0,0,0,0,0,0,0,0,0,0,0,0,0,0,0,0,0,0,0,0,0,0,0,0,0,0,0,0,0,0,0,0,0,0,0,0,0,0,0,0,0,0,0,0,0,0,0,0,0,0,0,0,0,0,0,
0,0,0,0,0,0,0,0,0,0,0,0,0,0,0,0,0,0,0,0,0,0,0,0,0,0,0,0,0,0,0,0,0,0,0,0,0,0,0,0,0,0,0,0,0,0,0,0,0,0,0,0,0,0,0,0,0,0,0,0,0,0,0,0,0,0,0,0,0,0,0,0,0,0,0,0,0,0,0,0,0,0,0,0,0,0,0,0,0,0,0,0,0,0,0,0,0,0,0,0,0,0,0,0,0,0,0,0,0,0,0,0,0,0,0,0,0,0,0,0,0,0,0,0,0,0,0,0,0,0,0,0,0,0,0,0,0,0,0,0,0,0,0,0,0,0,0,0,0,0,0,0,0,0,0,0,0,0,0,0,0,0,0,0,0,0,0,0,0,0,
0,0,0,0,0,0,0,0,0,0,0,0,0,0,0,0,0,0,0,0,0,0,0,0,0,0,0,0,0,0,0,0,0,0,0,0,0,0,0,0,0,0,0,0,0,0,0,0,0,0,0,0,0,0,0,0,0,0,0,0,0,0,0,0,0,0,0,0,0,0,0,0,0,0,0,0,0,0,0,0,0,0,0,0,0,0,0,0,0,0,0,0,0,0,0,0,0,0,0,0,0,0,0,0,0,0,0,0,0,0,0,0,0,0,0,0,0,0,0,0,0,0,0,0,0,0,0,0,0,0,0,0,0,0,0,0,0,0,0,0,0,0,0,0,0,0,0,0,0,0,0,0,0,0,0,0,0,0,0,0,0,0,0,0,0,0,0,0,0,0,
0,0,0,0,0,0,0,0,0,0,0,0,0,0,0,0,0,0,0,0,0,0,0,0,0,0,0,0,0,0,0,0,0,0,0,0,0,0,0,0,0,0,0,0,0,0,0,0,0,0,0,0,0,0,0,0,0,0,0,0,0,0,0,0,0,0,0,0,0,0,0,0,0,0,0,0,0,0,0,0,0,0,0,0,0,0,0,0,0,0,0,0,0,0,0,0,0,0,0,0,0,0,0,0,0,0,0,0,0,0,0,0,0,0,0,0,0,0,0,0,0,0,0,0,0,0,0,0,0,0,0,0,0,0,0,0,0,0,0,0,0,0,0,0,0,0,0,0,0,0,0,0,0,0,0,0,0,0,0,0,0,0,0,0,0,0,0,0,0,0,
0,0,0,0,0,0,0,0,0,0,0,0,0,0,0,0,0,0,0,0,0,0,0,0,0,0,0,0,0,0,0,0,0,0,0,0,0,0,0,0,0,0,0,0,0,0,0,0,0,0,0,0,0,0,0,0,0,0,0,0,0,0,0,0,0,0,0,0,0,0,0,0,0,0,0,0,0,0,0,0,0,0,0,0,0,0,0,0,0,0,0,0,0,0,0,0,0,0,0,0,0,0,0,0,0,0,0,0,0,0,0,0,0,0,0,0,0,0,0,0,0,0,0,0,0,0,0,0,0,0,0,0,0,0,0,0,0,0,0,0,0,0,0,0,0,0,0,0,0,0,0,0,0,0,0,0,0,0,0,0,0,0,0,0,0,0,0,0,0,0,
0,0,0,0,0,0,0,0,0,0,0,0,0,0,0,0,0,0,0,0,0,0,0,0,0,0,0,0,0,0,0,0,0,0,0,0,0,0,0,0,0,0,0,0,0,0,0,0,0,0,0,0,0,0,0,0,0,0,0,0,0,0,0,0,0,0,0,0,0,0,0,0,0,0,0,0,0,0,0,0,0,0,0,0,0,0,0,0,0,0,0,0,0,0,0,0,0,0,0,0,0,0,0,0,0,0,0,0,0,0,0,0,0,0,0,0,0,0,0,0,0,0,0,0,0,0,0,0,0,0,0,0,0,0,0,0,0,0,0,0,0,0,0,0,0,0,0,0,0,0,0,0,0,0,0,0,0,0,0,0,0,0,0,0,0,0,0,0,0,0,
0,0,0,0,0,0,0,0,0,0,0,0,0,0,0,0,0,0,0,0,0,0,0,0,0,0,0,0,0,0,0,0,0,0,0,0,0,0,0,0,0,0,0,0,0,0,0,0,0,0,0,0,0,0,0,0,0,0,0,0,0,0,0,0,0,0,0,0,0,0,0,0,0,0,0,0,0,0,0,0,0,0,0,0,0,0,0,0,0,0,0,0,0,0,0,0,0,0,0,0,0,0,0,0,0,0,0,0,0,0,0,0,0,0,0,0,0,0,0,0,0,0,0,0,0,0,0,0,0,0,0,0,0,0,0,0,0,0,0,0,0,0,0,0,0,0,0,0,0,0,0,0,0,0,0,0,0,0,0,0,0,0,0,0,0,0,0,0,0,0,
0,0,0,0,0,0,0,0,0,0,0,0,0,0,0,0,0,0,0,0,0,0,0,0,0,0,0,0,0,0,0,0,0,0,0,0,0,0,0,0,0,0,0,0,0,0,0,0,0,0,0,0,0,0,0,0,0,0,0,0,0,0,0,0,0,0,0,0,0,0,0,0,0,0,0,0,0,0,0,0,0,0,0,0,0,0,0,0,0,0,0,0,0,0,0,0,0,0,0,0,0,0,0,0,0,0,0,0,0,0,0,0,0,0,0,0,0,0,0,0,0,0,0,0,0,0,0,0,0,0,0,0,0,0,0,0,0,0,0,0,0,0,0,0,0,0,0,0,0,0,0,0,0,0,0,0,0,0,0,0,0,0,0,0,0,0,0,0,0,0,
0,0,0,0,0,0,0,0,0,0,0,0,0,0,0,0,0,0,0,0,0,0,0,0,0,0,0,0,0,0,0,0,0,0,0,0,0,0,0,0,0,0,0,0,0,0,0,0,0,0,0,0,0,0,0,0,0,0,0,0,0,0,0,0,0,0,0,0,0,0,0,0,0,0,0,0,0,0,0,0,0,0,0,0,0,0,0,0,0,0,0,0,0,0,0,0,0,0,0,0,0,0,0,0,0,0,0,0,0,0,0,0,0,0,0,0,0,0,0,0,0,0,0,0,0,0,0,0,0,0,0,0,0,0,0,0,0,0,0,0,0,0,0,0,0,0,0,0,0,0,0,0,0,0,0,0,0,0,0,0,0,0,0,0,0,0,0,0,0,0,
0,0,0,0,0,0,0,0,0,0,0,0,0,0,0,0,0,0,0,0,0,0,0,0,0,0,0,0,0,0,0,0,0,0,0,0,0,0,0,0,0,0,0,0,0,0,0,0,0,0,0,0,0,0,0,0,0,0,0,0,0,0,0,0,0,0,0,0,0,0,0,0,0,0,0,0,0,0,0,0,0,0,0,0,0,0,0,0,0,0,0,0,0,0,0,0,0,0,0,0,0,0,0,0,0,0,0,0,0,0,0,0,0,0,0,0,0,0,0,0,0,0,0,0,0,0,0,0,0,0,0,0,0,0,0,0,0,0,0,0,0,0,0,0,0,0,0,0,0,0,0,0,0,0,0,0,0,0,0,0,0,0,0,0,0,0,0,0,0,0,
0,0,0,0,0,0,0,0,0,0,0,0,0,0,0,0,0,0,0,0,0,0,0,0,0,0,0,0,0,0,0,0,0,0,0,0,0,0,0,0,0,0,0,0,0,0,0,0,0,0,0,0,0,0,0,0,0,0,0,0,0,0,0,0,0,0,0,0,0,0,0,0,0,0,0,0,0,0,0,0,0,0,0,0,0,0,0,0,0,0,0,0,0,0,0,0,0,0,0,0,0,0,0,0,0,0,0,0,0,0,0,0,0,0,0,0,0,0,0,0,0,0,0,0,0,0,0,0,0,0,0,0,0,0,0,0,0,0,0,0,0,0,0,0,0,0,0,0,0,0,0,0,0,0,0,0,0,0,0,0,0,0,0,0,0,0,0,0,0,0,
0,0,0,0,0,0,0,0,0,0,0,0,0,0,0,0,0,0,0,0,0,0,0,0,0,0,0,0,0,0,0,0,0,0,0,0,0,0,0,0,0,0,0,0,0,0,0,0,0,0,0,0,0,0,0,0,0,0,0,0,0,0,0,0,0,0,0,0,0,0,0,0,0,0,0,0,0,0,0,0,0,0,0,0,0,0,0,0,0,0,0,0,0,0,0,0,0,0,0,0,0,0,0,0,0,0,0,0,0,0,0,0,0,0,0,0,0,0,0,0,0,0,0,0,0,0,0,0,0,0,0,0,0,0,0,0,0,0,0,0,0,0,0,0,0,0,0,0,0,0,0,0,0,0,0,0,0,0,0,0,0,0,0,0,0,0,0,0,0,0,
0,0,0,0,0,0,0,0,0,0,0,0,0,0,0,0,0,0,0,0,0,0,0,0,0,0,0,0,0,0,0,0,0,0,0,0,0,0,0,0,0,0,0,0,0,0,0,0,0,0,0,0,0,0,0,0,0,0,0,0,0,0,0,0,0,0,0,0,0,0,0,0,0,0,0,0,0,0,0,0,0,0,0,0,0,0,0,0,0,0,0,0,0,0,0,0,0,0,0,0,0,0,0,0,0,0,0,0,0,0,0,0,0,0,0,0,0,0,0,0,0,0,0,0,0,0,0,0,0,0,0,0,0,0,0,0,0,0,0,0,0,0,0,0,0,0,0,0,0,0,0,0,0,0,0,0,0,0,0,0,0,0,0,0,0,0,0,0,0,0,
0,0,0,0,0,0,0,0,0,0,0,0,0,0,0,0,0,0,0,0,0,0,0,0,0,0,0,0,0,0,0,0,0,0,0,0,0,0,0,0,0,0,0,0,0,0,0,0,0,0,0,0,0,0,0,0,0,0,0,0,0,0,0,0,0,0,0,0,0,0,0,0,0,0,0,0,0,0,0,0,0,0,0,0,0,0,0,0,0,0,0,0,0,0,0,0,0,0,0,0,0,0,0,0,0,0,0,0,0,0,0,0,0,0,0,0,0,0,0,0,0,0,0,0,0,0,0,0,0,0,0,0,0,0,0,0,0,0,0,0,0,0,0,0,0,0,0,0,0,0,0,0,0,0,0,0,0,0,0,0,0,0,0,0,0,0,0,0,0,0,
0,0,0,0,0,0,0,0,0,0,0,0,0,0,0,0,0,0,0,0,0,0,0,0,0,0,0,0,0,0,0,0,0,0,0,0,0,0,0,0,0,0,0,0,0,0,0,0,0,0,0,0,0,0,0,0,0,0,0,0,0,0,0,0,0,0,0,0,0,0,0,0,0,0,0,0,0,0,0,0,0,0,0,0,0,0,0,0,0,0,0,0,0,0,0,0,0,0,0,0,0,0,0,0,0,0,0,0,0,0,0,0,0,0,0,0,0,0,0,0,0,0,0,0,0,0,0,0,0,0,0,0,0,0,0,0,0,0,0,0,0,0,0,0,0,0,0,0,0,0,0,0,0,0,0,0,0,0,0,0,0,0,0,0,0,0,0,0,0,0,
0,0,0,0,0,0,0,0,0,0,0,0,0,0,0,0,0,0,0,0,0,0,0,0,0,0,0,0,0,0,0,0,0,0,0,0,0,0,0,0,0,0,0,0,0,0,0,0,0,0,0,0,0,0,0,0,0,0,0,0,0,0,0,0,0,0,0,0,0,0,0,0,0,0,0,0,0,0,0,0,0,0,0,0,0,0,0,0,0,0,0,0,0,0,0,0,0,0,0,0,0,0,0,0,0,0,0,0,0,0,0,0,0,0,0,0,0,0,0,0,0,0,0,0,0,0,0,0,0,0,0,0,0,0,0,0,0,0,0,0,0,0,0,0,0,0,0,0,0,0,0,0,0,0,0,0,0,0,0,0,0,0,0,0,0,0,0,0,0,0,
0,0,0,0,0,0,0,0,0,0,0,0,0,0,0,0,0,0,0,0,0,0,0,0,0,0,0,0,0,0,0,0,0,0,0,0,0,0,0,0,0,0,0,0,0,0,0,0,0,0,0,0,0,0,0,0,0,0,0,0,0,0,0,0,0,0,0,0,0,0,0,0,0,0,0,0,0,0,0,0,0,0,0,0,0,0,0,0,0,0,0,0,0,0,0,0,0,0,0,0,0,0,0,0,0,0,0,0,0,0,0,0,0,0,0,0,0,0,0,0,0,0,0,0,0,0,0,0,0,0,0,0,0,0,0,0,0,0,0,0,0,0,0,0,0,0,0,0,0,0,0,0,0,0,0,0,0,0,0,0,0,0,0,0,0,0,0,0,0,0,
0,0,0,0,0,0,0,0,0,0,0,0,0,0,0,0,0,0,0,0,0,0,0,0,0,0,0,0,0,0,0,0,0,0,0,0,0,0,0,0,0,0,0,0,0,0,0,0,0,0,0,0,0,0,0,0,0,0,0,0,0,0,0,0,0,0,0,0,0,0,0,0,0,0,0,0,0,0,0,0,0,48,49,50,51,52,53,54,55,56,57,58,59,60,48,49,50,51,52,53,54,55,56,57,58,59,60,48,49,50,51,52,53,54,55,56,57,58,59,60,48,49,50,51,52,53,54,55,56,57,58,59,60,48,49,50,51,52,53,54,55,56,57,58,59,60,48,49,50,51,52,53,54,55,56,57,58,48,49,50,51,52,53,54,55,56,57,58,59,60,
0,0,0,0,0,0,0,0,0,0,0,0,0,0,0,0,0,0,0,0,0,0,0,0,0,0,0,0,0,0,0,0,0,0,0,0,0,0,0,0,0,0,0,0,0,0,0,0,0,0,0,0,0,0,0,0,0,0,0,0,0,0,0,0,0,0,0,0,0,0,0,0,0,0,0,0,0,0,0,0,0,284,285,286,287,288,289,290,291,292,293,294,295,296,284,285,286,287,288,289,290,291,292,293,294,295,296,284,285,286,287,288,289,290,291,292,293,294,295,296,284,285,286,287,288,289,290,291,292,293,294,295,296,284,285,286,287,288,289,290,291,292,293,294,295,296,284,285,286,287,288,289,290,291,292,293,294,284,285,286,287,288,289,290,291,292,293,294,295,296,
0,0,0,0,0,0,0,0,0,0,0,0,0,0,0,0,0,0,0,0,0,0,0,0,0,0,0,0,0,0,0,0,0,0,0,0,0,0,0,0,0,0,0,0,0,0,0,0,0,0,0,0,0,0,0,0,0,0,0,0,0,0,0,0,0,0,0,0,0,0,0,0,0,0,0,0,0,0,0,0,0,520,521,522,523,524,525,526,527,528,529,530,531,532,520,521,522,523,524,525,526,527,528,529,530,531,532,520,521,522,523,524,525,526,527,528,529,530,531,532,520,521,522,523,524,525,526,527,528,529,530,531,532,520,521,522,523,524,525,526,527,528,529,530,531,532,520,521,522,523,524,525,526,527,528,529,530,520,521,522,523,524,525,526,527,528,529,530,531,532,
0,0,0,0,0,0,0,0,0,0,0,0,0,0,0,0,0,0,0,0,0,0,0,0,0,0,0,0,0,0,0,0,0,0,0,0,0,0,0,0,0,0,0,0,0,0,0,0,0,0,0,0,0,0,0,0,0,0,0,0,0,0,0,0,0,0,0,0,0,0,0,0,0,0,0,0,0,0,0,0,0,756,757,758,759,760,761,762,763,764,765,766,767,768,756,757,758,759,760,761,762,763,764,765,766,767,768,756,757,758,759,760,761,762,763,764,765,766,767,768,756,757,758,759,760,761,762,763,764,765,766,767,768,756,757,758,759,760,761,762,763,764,765,766,767,768,756,757,758,759,760,761,762,763,764,765,766,756,757,758,759,760,761,762,763,764,765,766,767,768,
0,0,0,0,0,0,0,0,0,0,0,0,0,0,0,0,0,0,0,0,0,0,0,0,0,0,0,0,0,0,0,0,0,0,0,0,0,0,0,0,0,0,0,0,0,0,0,0,0,0,0,0,0,0,0,0,0,0,0,0,0,0,0,0,0,0,0,0,0,0,0,0,0,0,0,0,0,0,0,0,0,992,993,994,995,996,997,998,999,1000,1001,1002,1003,1004,992,993,994,995,996,997,998,999,1000,1001,1002,1003,1004,992,993,994,995,996,997,998,999,1000,1001,1002,1003,1004,992,993,994,995,996,997,998,999,1000,1001,1002,1003,1004,992,993,994,995,996,997,998,999,1000,1001,1002,1003,1004,992,993,994,995,996,997,998,999,1000,1001,1002,992,993,994,995,996,997,998,999,1000,1001,1002,1003,1004,
0,0,0,0,0,0,0,0,0,0,0,0,0,0,0,0,0,0,0,0,0,0,0,0,0,0,0,0,0,0,0,0,0,0,0,0,0,0,0,0,0,0,0,0,0,0,0,0,0,0,0,0,0,0,0,0,0,0,0,0,0,0,0,0,0,0,0,0,0,0,0,0,0,0,0,0,0,0,0,0,0,1228,1229,1230,1231,1232,1233,1234,1235,1236,1237,1238,1239,1240,1228,1229,1230,1231,1232,1233,1234,1235,1236,1237,1238,1239,1240,1228,1229,1230,1231,1232,1233,1234,1235,1236,2147484637,2147484636,2147484635,2147484634,2147484633,2147484632,2147484631,2147484630,2147484629,2147484628,2147484627,2147484627,2147484627,2147484627,2147484627,2147484627,2147484627,2147484627,2147484627,2147484627,2147484627,2147484627,2147484627,2147484627,2147484627,1236,1237,1238,1239,1240,1228,1229,1230,1231,2147484637,2147484637,2147484637,2147484637,2147484637,2147484637,2147484637,2147484637,2147484637,2147484636,2147484635,2147484634,2147484633,2147484632,2147484631,2147484630,2147484629,2147484628,2147484627,1240,
0,0,0,0,0,0,0,0,0,0,0,0,0,0,0,0,0,0,0,0,0,0,0,0,0,0,0,0,0,0,0,0,0,0,0,0,0,0,0,0,0,0,0,0,0,0,0,0,0,0,0,0,0,0,0,0,0,0,0,0,0,0,0,0,0,0,0,0,0,0,0,0,0,0,0,0,0,0,0,0,0,989,990,991,992,993,994,2147484635,2147484634,2147484633,1000,1001,1002,2147484629,2147484628,2147484627,2147484627,2147484627,2147484627,2147484627,2147484627,2147484627,2147484627,2147484627,2147484627,2147484627,2147484627,2147484627,2147484627,2147484627,2147484627,2147484627,2147484627,2147484637,2147484636,2147484635,989,990,991,992,993,994,2147484628,2147484627,2147484627,2147484627,2147484627,2147484863,2147484863,989,990,991,992,993,994,2147484863,2147484863,2147484863,989,990,991,992,993,1000,1001,1002,990,991,992,993,989,989,989,990,991,992,993,994,992,989,990,991,992,993,994,2147484632,2147484631,2147484630,2147484629,2147484628,
0,0,0,0,0,0,0,0,0,0,0,0,0,0,0,0,0,0,0,0,0,0,0,0,0,0,0,0,0,0,0,0,0,0,0,0,0,0,0,0,0,0,0,0,0,0,0,0,0,0,0,0,0,0,0,0,0,0,0,0,0,0,0,0,0,0,0,0,0,0,0,0,0,0,0,0,0,0,0,0,0,989,990,991,992,993,994,1000,1001,1002,1236,1237,1238,2147484627,2147484627,2147484627,2147484863,2147484863,2147484863,2147484863,989,990,991,992,993,994,991,992,993,994,993,994,2147484637,2147484636,2147484635,989,990,991,992,993,994,1230,2147484627,2147484627,2147484863,2147484863,2147484863,989,990,991,992,993,994,989,989,990,991,992,993,994,993,994,1000,1236,1237,1238,1226,1227,1228,1229,1225,1225,1000,1001,1002,1000,1001,1002,1001,1002,1002,1227,1228,1000,1001,1002,990,991,992,993,
0,0,0,0,0,0,0,0,0,0,0,0,0,0,0,0,0,0,0,0,0,0,0,0,0,0,0,0,0,0,0,0,0,0,0,0,0,0,0,0,0,0,59,60,61,62,63,64,65,66,67,68,69,70,71,72,73,74,75,76,77,78,79,80,81,82,83,84,85,86,0,0,0,0,0,0,0,0,0,0,0,1000,1001,1002,1228,1229,1230,1236,1237,1238,994,2147484636,2147484635,2147484634,2147484633,1000,1001,1002,2147484629,1000,1001,1002,1227,1228,1000,1001,1002,1228,1000,1001,1000,1001,1002,1001,1002,990,991,992,993,994,1230,990,991,992,993,994,990,1225,1226,1227,1228,1229,1230,1225,1225,989,990,991,992,993,994,1230,1236,1237,1238,1461,1462,1463,989,990,1000,1001,1236,1237,1238,1236,1237,1238,1237,1238,1238,1002,1464,1236,1237,1238,991,992,993,994,
0,0,0,0,0,0,0,0,0,0,0,0,0,0,0,0,0,0,0,0,0,0,0,0,0,0,0,0,0,0,0,0,0,0,0,0,0,0,0,0,0,0,295,296,297,298,299,300,301,302,303,304,305,306,307,308,309,310,311,312,313,314,315,316,317,318,319,320,321,322,0,0,0,0,0,0,0,0,0,0,0,1236,1237,1238,1464,1000,1001,1002,1228,1229,1230,2147484637,2147484637,2147484637,2147484637,1236,1237,1238,2147484637,1236,1237,1238,1002,1464,1236,1000,1001,1002,1236,1237,1236,1237,1238,1237,1238,1226,1227,1228,1229,1230,1000,1001,1000,1001,1002,1230,1226,1005,1006,1007,1008,1009,1010,1011,1012,1013,1014,1015,1016,1017,1018,989,990,991,992,1000,1001,1002,1225,1226,1236,1237,1238,1230,990,991,992,989,989,1236,1237,1238,991,989,989,990,991,992,993,994,
0,0,0,0,0,0,0,0,0,0,0,0,0,0,0,0,0,0,0,0,0,0,0,0,0,0,0,0,0,0,0,0,0,0,0,0,0,0,0,0,0,0,531,532,533,534,535,536,537,538,539,540,541,542,543,544,545,546,547,548,549,550,551,552,553,554,555,556,557,558,0,0,0,0,0,0,0,0,0,0,0,1236,1237,1238,991,1236,1237,1238,993,1000,1001,1002,993,994,991,992,993,994,2147484873,1461,1236,1237,1238,992,993,1000,1001,1002,990,991,992,993,994,1000,1001,1000,1001,1002,1000,1001,1236,1237,1236,1237,1238,1001,1002,1241,1242,1243,1244,1245,1246,1247,1248,1249,1250,1251,1252,1253,1254,1225,1000,1001,1002,1236,1000,1001,1002,1002,1002,1002,1002,989,989,989,989,1225,1225,1225,989,989,989,989,989,990,991,992,993,994,
0,0,0,0,0,0,0,0,0,0,0,0,0,0,0,0,0,0,0,0,0,0,0,0,0,0,0,0,0,0,0,0,0,0,0,0,0,0,0,0,0,0,767,768,769,770,771,772,773,774,775,776,777,778,779,780,781,782,783,784,785,786,787,788,789,790,791,792,793,794,0,0,0,0,0,0,0,0,0,0,0,1005,1225,1226,1227,1228,1229,1230,1229,1236,1237,1238,1229,1230,1227,1228,1229,1230,2147485109,2147485109,1225,1226,1227,1228,1229,1236,1237,1238,993,994,993,989,990,1236,1237,1236,1237,1238,1236,1237,1238,1226,1227,1228,1236,1237,1238,1477,1478,1479,1480,1481,1482,1483,1484,1485,1486,1487,1488,1489,1490,1461,1236,1000,1001,1002,1236,1237,1238,1238,1238,1238,1238,1225,1225,1225,1225,1461,1461,1461,1225,1225,1225,989,989,990,991,992,993,994,
0,0,0,0,0,0,0,0,0,0,0,0,0,0,0,0,0,0,0,0,0,0,0,0,0,0,0,0,0,0,0,0,0,0,0,0,0,0,0,0,0,0,1003,1004,1005,1006,1007,1008,1009,1010,1011,1012,1013,1014,1015,1016,1017,1018,1019,1020,1021,1022,1023,1024,1025,1026,1027,1028,1029,1030,0,0,0,0,0,0,0,0,0,0,0,1000,1001,1002,1463,1000,1001,1002,993,1000,1001,1002,1465,1005,1006,1007,1008,1009,1010,1011,1012,1013,1014,1015,1016,1017,1018,992,993,994,989,990,991,992,993,994,994,989,990,991,1461,1462,1000,1001,1002,1000,1001,1002,1714,1715,1716,1717,1718,1719,1720,1721,1722,1723,1724,1725,1239,1240,1228,1000,1001,1002,1000,1001,1236,1237,1236,1237,1238,1006,1007,1008,1009,1010,1011,1012,1013,1014,1015,1016,1017,1018,992,993,994,994,
0,0,0,0,0,0,0,0,0,0,0,0,0,0,0,0,0,0,0,0,0,0,0,0,0,0,0,0,0,0,0,0,0,0,0,0,0,0,0,0,0,0,1239,1240,1241,1242,1243,1244,1245,1246,1247,1248,1249,1250,1251,1252,1253,1254,1255,1256,1257,1258,1259,1260,1261,1262,1263,1264,1265,1266,0,0,0,0,0,0,0,0,0,0,0,1236,1237,1238,1227,1236,1237,1238,1002,1001,1002,1238,1228,1241,1242,1243,1244,1245,1246,1247,1248,1249,1250,1251,1252,1253,1254,989,990,991,992,993,994,993,994,1000,1001,1002,1226,1000,1001,1000,1236,1237,1238,1236,1237,1238,1002,1951,1952,1953,1954,1955,1956,1957,1958,1959,1960,1961,1475,1476,1464,1000,1001,1002,1236,1237,1238,1466,991,989,1241,1242,1243,1244,1245,1246,1247,1248,1249,1250,1251,1000,1001,1002,994,993,994,1230,
0,0,0,0,0,0,0,0,0,0,0,0,0,0,0,0,0,0,0,0,0,0,0,0,0,0,0,0,0,0,0,0,0,0,0,0,0,0,0,0,0,0,1475,1476,1477,1478,1479,1480,1481,1482,1483,1484,1485,1486,1487,1488,1489,1490,1491,1492,1493,1494,1495,1496,1497,1498,1499,1500,1501,1502,0,0,0,0,0,0,0,0,0,0,0,1713,1461,1000,1001,1002,1236,1237,1238,1237,1238,1463,1464,1477,1478,1479,1480,1481,1482,1483,1484,1485,1486,1487,1488,1489,1000,1001,1002,1227,1228,1229,1230,1229,1230,1236,1237,1238,1462,1236,1237,1236,1237,1238,989,990,1236,1237,1238,2187,2188,2189,2190,2191,2192,2193,2194,2195,2196,2197,1239,1240,1462,1000,1001,1002,989,990,991,989,990,991,1477,1478,1479,1480,1481,1482,1483,1484,1485,1486,1487,1236,1000,1001,1002,1002,1230,1466,
0,0,0,0,0,0,0,0,0,0,0,0,0,0,0,0,0,0,0,0,0,0,0,0,0,0,0,0,0,0,0,0,0,0,0,0,0,0,0,0,0,0,1711,1712,1713,1714,1715,1716,1717,1718,1719,1720,1721,1722,1723,1724,1725,1726,1727,1728,1729,1730,1731,1732,1733,1734,1735,1736,1737,1738,0,0,0,0,0,0,0,0,0,0,0,989,990,1236,1237,1238,994,2147484635,2147484634,1000,1001,1002,1001,1002,1714,1715,1716,1717,1718,1719,1720,1721,1722,1723,1724,1725,1236,1237,1238,1463,1464,1465,1466,989,990,991,989,989,990,991,992,993,994,1461,1225,1226,1227,1228,989,990,991,992,993,1461,1461,1462,1463,1464,1465,1466,1475,1476,1000,1236,1237,1238,993,994,994,990,991,992,1713,1714,1715,1716,1717,1718,1719,1720,1721,1722,1723,1724,1236,1237,1238,1238,1466,988,
0,0,0,0,0,0,0,0,0,0,0,0,0,0,0,0,0,0,0,0,0,0,0,0,0,0,0,0,0,0,0,0,0,0,0,0,0,0,0,0,0,0,1947,1948,1949,1950,1951,1952,1953,1954,1955,1956,1957,1958,1959,1960,1961,1962,1963,1964,1965,1966,1967,1968,1969,1970,1971,1972,1973,1974,0,0,0,0,0,0,0,0,0,0,0,1225,1226,1227,1228,1229,1230,994,989,1236,1237,1238,1237,1238,1002,1951,1952,1953,1954,1955,1956,1957,1958,1959,1960,1961,1000,1001,1002,992,993,994,1466,1225,989,990,991,992,993,994,990,991,992,993,989,990,991,992,993,994,1227,1228,1229,1230,979,979,1225,1226,1225,1461,989,989,1236,1237,1238,993,994,1230,1230,992,993,1000,1001,1002,1951,1952,1953,1954,1955,1956,1957,1958,1959,1960,1961,1000,1001,1002,989,989,
0,0,0,0,0,0,0,0,0,0,0,0,0,0,0,0,0,0,0,0,0,0,0,0,0,0,0,0,0,0,0,0,0,0,0,0,0,0,0,0,0,0,2183,2184,2185,2186,2187,2188,2189,2190,2191,2192,2193,2194,2195,2196,2197,2198,2199,2200,2201,2202,2203,2204,2205,2206,2207,2208,2209,2210,0,0,0,0,0,0,0,0,0,0,0,1461,989,990,991,992,993,994,1000,1001,1002,1000,1001,1002,1238,2187,2188,2189,2190,2191,2192,2193,2194,2195,2196,2197,1236,1237,1238,992,993,994,989,990,989,990,991,992,993,994,989,990,991,989,990,991,992,993,994,1230,1463,1464,1000,1001,1002,991,992,993,994,994,1225,1225,1236,1237,1238,1001,1000,1001,1002,989,989,1236,1237,1238,2187,2188,2189,2190,2191,2192,2193,2194,2195,2196,2197,1236,1237,1238,992,993,
0,0,0,0,0,0,0,0,0,0,0,0,0,0,0,0,0,0,0,0,0,0,0,0,0,0,0,0,0,0,0,0,0,0,0,0,0,0,0,0,0,0,0,0,0,0,0,0,0,0,0,0,0,0,0,0,0,0,0,0,0,0,0,0,0,0,0,0,0,0,0,0,0,0,0,0,0,0,0,0,0,989,990,991,992,993,994,989,1236,1237,1238,1236,1237,1238,1465,1225,1226,1227,1228,1229,989,989,990,991,992,993,994,989,989,989,989,989,990,991,1000,1001,1002,992,993,1000,1001,1002,1000,1001,1002,1227,1228,1229,1230,1000,1001,1002,1236,1237,1238,1227,1228,1229,1230,1230,1000,1001,1236,1237,1236,1237,1236,1237,1238,989,989,990,991,992,993,994,1230,1000,1001,1002,1225,1000,1001,1002,1225,1225,989,989,989,989,
0,0,0,0,0,0,0,0,0,0,0,0,0,0,0,0,0,0,0,0,0,0,0,0,0,0,0,0,0,0,0,0,0,0,0,0,0,0,0,0,0,0,0,0,0,0,0,0,0,0,0,0,0,0,0,0,0,0,0,0,0,0,0,0,0,0,0,0,0,0,0,0,0,0,0,0,0,0,0,0,0,1225,1226,1227,1228,1000,1001,1002,1226,1000,1001,1002,990,991,992,989,990,991,992,993,1225,1225,1226,1227,1228,1229,1230,1225,1225,1225,1225,1225,1226,1227,1000,1001,1002,1228,1000,1236,1237,1238,1236,1237,1238,1000,1001,1002,1000,1001,1002,1002,1000,1001,1002,1463,1000,1001,1002,1000,1001,1002,1238,1466,989,989,1000,1001,1002,1225,989,990,991,992,993,994,1466,1236,1237,1238,1002,1236,1237,1238,1001,1002,1002,1002,1225,1225,
0,0,0,0,0,0,0,0,0,0,0,0,0,0,0,0,0,0,0,0,0,0,0,0,0,0,0,0,0,0,0,0,0,0,0,0,0,0,0,0,0,0,0,0,0,0,0,0,0,0,0,0,0,0,0,0,0,0,0,0,0,0,0,0,0,0,0,0,0,0,0,0,0,0,0,0,0,0,0,0,0,1461,1462,1463,1464,1236,1237,1238,1462,1236,1000,1001,1002,1000,1001,1002,990,991,989,989,989,1000,1001,1002,989,989,989,989,989,990,991,992,993,994,1236,1237,1000,1001,1002,1236,1237,1238,1236,1237,1238,1002,1000,1001,1002,1237,1238,1000,1001,1002,1238,2147484637,1236,1237,1000,1236,1237,1238,989,1000,1001,1002,1002,1002,1238,1002,1225,989,989,990,991,992,993,994,1236,1237,1238,1000,1000,1236,1237,1238,1238,1238,992,1000,
0,0,0,0,0,0,0,0,0,0,0,0,0,0,0,0,0,0,0,0,0,0,0,0,0,0,0,0,0,0,0,0,0,0,0,0,0,0,0,0,0,0,0,0,0,0,0,0,0,0,0,0,0,0,0,0,0,0,0,0,0,0,0,0,0,0,0,0,0,0,0,0,0,0,0,0,0,0,0,0,0,989,990,991,992,1225,1226,1000,1001,1002,1236,1237,1238,1236,1237,1238,1000,1001,1002,1225,1225,1236,1237,1238,1225,1225,1225,1225,1225,1226,1227,1228,1229,989,990,991,1236,1237,1238,992,1000,1000,1001,1002,1000,1001,1002,1237,1238,1000,1001,1236,1237,1238,2147484632,2147484873,1225,1000,1236,1237,1238,1001,1002,1236,1000,1001,1002,1002,1002,1002,1000,1000,1001,1002,989,989,989,989,990,1000,1236,1236,1236,1236,1237,1238,990,991,992,1236,
0,0,0,0,0,0,0,0,0,0,0,0,0,0,0,0,0,0,0,0,0,0,0,0,0,0,0,0,0,0,0,0,0,0,0,0,0,0,0,0,0,0,0,0,0,0,0,0,0,0,0,0,0,0,0,0,0,0,0,0,0,0,0,0,0,0,0,0,0,0,0,0,0,0,0,0,0,0,0,0,0,1225,1226,1227,1000,1001,1002,1236,1237,1238,990,991,992,993,994,1461,1236,1000,1001,1002,1000,1001,1002,1461,1461,1461,1461,1461,1461,1462,1463,1464,1465,1225,1226,1227,1228,1229,1230,990,1236,1236,1237,1238,1236,1237,1238,1000,1001,1002,1001,1002,1000,1001,1002,1000,1001,1236,1237,1238,1236,1237,1238,1461,1236,1237,1238,1238,1238,1002,1236,1236,1237,1238,990,991,992,993,994,1236,1237,1238,1238,1236,1237,1238,1001,1002,993,994,
0,0,0,0,0,0,0,0,0,0,0,0,0,0,0,0,0,0,0,0,0,0,0,0,0,0,0,0,0,0,0,0,0,0,0,0,0,0,0,0,0,0,0,0,0,0,0,0,0,0,0,0,0,0,0,0,0,0,0,0,0,0,0,0,0,0,0,0,0,0,0,0,0,0,0,0,0,0,0,0,0,1461,1462,1463,1236,1237,1238,2147484637,2147484636,1225,1226,1227,1228,1229,1230,2147484629,2147484628,1236,1000,1000,1236,1237,1238,992,993,994,1016,989,990,1225,989,989,989,1461,1005,1006,1007,1008,1009,1010,1011,1012,1013,1014,1015,1236,1237,1236,1237,1238,1001,1002,1236,1237,1238,1236,1237,1238,989,1225,1225,1000,1000,1001,1002,1001,1236,1236,1237,1238,990,991,992,993,994,994,994,994,1230,1230,1230,1230,1230,1236,1237,1238,1237,1238,993,994,
0,0,0,0,0,0,0,0,0,0,0,0,0,0,0,0,0,0,0,0,0,0,0,0,0,0,0,0,0,0,0,0,0,0,0,0,0,0,0,0,0,0,0,0,0,0,0,0,0,0,0,0,0,0,0,0,0,0,0,0,0,0,0,0,0,0,0,0,0,0,0,0,0,0,0,0,0,0,0,0,0,2147484637,2147484636,2147484635,989,990,991,992,993,1461,1462,1463,1464,1465,1466,2147484630,2147484629,2147484628,1236,1236,1237,1238,1227,1228,1229,1230,1252,1225,1226,1461,1225,1225,1225,1225,1241,1242,1243,1244,1245,1246,1247,1248,1249,1250,1251,1238,1239,1002,1001,1002,1001,1002,989,1000,1001,1002,989,990,991,992,1000,1236,1236,1237,1238,1001,1002,989,989,989,990,991,992,993,994,1000,1000,1001,1002,1000,1001,1002,1000,1001,1002,1000,1001,1002,994,994,
1,2,3,4,5,6,7,8,9,10,11,12,13,14,15,1,2,3,4,5,6,7,8,9,10,11,12,13,14,15,49,50,51,52,53,54,55,56,57,58,59,60,49,50,51,52,53,54,55,56,57,58,59,60,61,49,50,51,52,53,54,55,56,57,58,59,60,61,49,50,51,52,53,54,55,56,57,58,59,60,61,2147484637,2147484636,2147484635,1005,1006,1007,1008,1009,1010,1011,1012,1013,1014,1015,1016,1017,1018,2147484628,2147484627,1461,1462,1463,1464,1465,1466,994,1461,1462,1463,1461,1461,1461,1461,1477,1478,1479,1480,1481,1482,1483,1484,1485,1486,1487,1474,1475,1238,1001,1002,1001,1002,1000,1001,1002,1238,1000,1001,1002,1002,1236,1236,1237,1238,1001,1002,1238,989,1225,989,990,991,992,993,994,1236,1236,1237,1238,1236,1000,1001,1002,1002,1002,1236,1237,1238,1230,994,
237,238,239,240,241,242,243,244,245,246,247,248,249,250,251,237,238,239,240,241,242,243,244,245,246,247,248,249,250,251,285,286,287,288,289,290,291,292,293,294,295,296,285,286,287,288,289,290,291,292,293,294,295,296,297,285,286,287,288,289,290,291,292,293,294,295,296,297,285,286,287,288,289,290,291,292,293,294,295,296,297,2147484637,2147484636,2147484635,1241,1242,1243,1244,1245,1246,1247,1248,1249,1250,1251,1238,1239,1254,2147484637,2147484637,2147484637,1225,1226,1227,1228,1229,1230,2147484637,2147484637,2147484637,2147484873,989,990,1000,1001,1002,1715,1716,1717,1718,1719,1720,1721,1722,1723,1724,1725,1000,1001,1002,1237,1238,1236,1237,1238,990,1236,1237,1238,1238,1236,1237,1238,1236,1237,1238,989,1005,1006,1007,1008,1009,1010,1011,1012,1013,1014,1236,1237,1238,1236,1237,1238,1238,1238,1237,1238,1000,1001,1002,
473,474,475,476,477,478,479,480,481,482,483,484,485,486,487,473,474,475,476,477,478,479,480,481,482,483,484,485,486,487,521,522,523,524,525,526,527,528,529,530,531,532,521,522,523,524,525,526,527,528,529,530,531,532,533,521,522,523,524,525,526,527,528,529,530,531,532,533,521,522,523,524,525,526,527,528,529,530,531,532,533,2147484637,989,990,1477,1478,1479,1480,1481,1482,1483,1484,1485,1486,1487,1474,1475,1000,1001,1002,2147484873,1461,1462,1463,1464,1465,1466,2147484873,2147484873,2147484873,2147485109,1225,1226,1236,1237,1238,1951,1952,1953,1954,1955,1956,1957,1958,1959,1960,1961,1000,1001,1002,1002,991,992,993,1225,1000,1001,1002,1002,1000,1001,1002,1001,1002,992,993,994,1241,1242,1243,1244,1245,1246,1247,1248,1249,1250,1251,1252,1253,1000,1236,1236,1237,1238,1002,1002,1000,1001,1002,
709,710,711,712,713,714,715,716,717,718,719,720,721,722,723,709,710,711,712,713,714,715,716,717,718,719,720,721,722,723,757,758,759,760,761,762,763,764,765,766,767,768,757,758,759,760,761,762,763,764,765,766,767,768,769,757,758,759,760,761,762,763,764,765,766,767,768,769,757,758,759,760,761,762,763,764,765,766,767,768,769,2147484637,1000,1001,1002,1714,1715,1716,1717,1718,1719,1720,1721,1722,1723,1724,1725,1236,1237,1238,992,993,994,990,991,992,993,994,2147485109,989,990,991,992,1236,1237,1238,2187,2188,2189,2190,2191,2192,2193,2194,2195,2196,2197,1236,1237,1238,1238,1227,989,990,1461,1236,1237,1238,1002,1236,1237,1238,1237,1238,1002,1229,1230,1477,1478,1479,1480,1481,1482,1483,1484,1485,1486,1487,1488,1489,1236,1237,1238,1236,1237,1238,1238,1236,1237,1238,
945,946,947,948,949,950,951,952,953,954,955,956,957,958,959,945,946,947,948,949,950,951,952,953,954,955,956,957,958,959,993,994,995,996,997,998,999,1000,1001,1002,1003,1004,993,994,995,996,997,998,999,1000,1001,1002,1003,1004,1005,993,994,995,996,997,998,999,1000,1001,1002,1003,1004,1005,993,994,995,996,997,998,999,1000,1001,1002,1003,1004,1000,1001,1002,1237,1238,1002,1951,1952,1953,1954,1955,1956,1957,1958,1959,1960,1961,1000,1001,1002,1228,1229,1230,1226,989,990,991,992,993,1225,1226,1227,1228,1229,1230,1461,1462,989,990,991,992,1225,1226,1227,1228,1229,1461,1462,1463,1461,1462,1463,1225,1226,1225,1236,1237,1238,1238,1236,1237,1238,1236,1237,1238,1465,1000,1001,1002,1715,1716,1717,1718,1719,1720,1721,1722,1723,1724,1725,1236,1237,1238,989,1461,1236,1237,1238,1237,1238,
1181,1182,1183,1184,1185,1186,1187,1188,1189,1190,1191,1192,1193,1194,1195,1181,1182,1183,1184,1185,1186,1187,1188,1189,1190,1191,1192,1193,1194,1195,1229,1230,1231,1232,1233,1234,1235,1236,1237,1238,1239,1240,1229,1230,1231,1232,1233,1234,1235,1236,1237,1238,1239,1240,1241,1229,1230,1231,1232,1233,1234,1235,1236,1237,1238,1239,1240,1241,1229,1230,1231,1232,1233,1234,1235,1236,1237,1238,1239,1240,1236,1237,1238,1236,1237,1238,2187,2188,2189,2190,2191,2192,2193,2194,2195,2196,2197,1236,1237,1238,990,991,992,993,994,1226,1227,1228,1229,989,990,991,992,993,994,1228,1229,1225,1226,1227,1228,1461,989,990,991,992,993,994,989,990,991,992,1461,1462,1461,1000,1001,1002,1225,1236,1237,1238,1236,1000,1001,1002,1236,1237,1238,1951,1952,1953,1954,1955,1956,1957,1958,1959,1960,1961,1962,1230,1230,1000,1001,1002,1000,1001,1002,1002,
1417,1418,1419,1420,1421,1422,1423,1424,1425,1426,1427,1428,1429,1430,1431,1417,1418,1419,1420,1421,1422,1423,1424,1425,1426,1427,1428,1429,1430,1431,1465,1466,1467,1468,1469,1470,1471,1472,1473,1474,1475,1476,1465,1466,1467,1468,1469,1470,1471,1472,1473,1474,1475,1476,1477,1465,1466,1467,1468,1469,1470,1471,1472,1473,1474,1475,1476,1477,1465,1466,1467,1468,1469,1470,1471,1472,1473,1000,1001,1002,1236,1237,1238,991,992,993,994,1465,1461,1000,1001,1002,1002,1002,1226,1227,1228,1000,1001,1002,1226,1227,1228,1229,1230,1462,1463,1464,1465,1225,1226,1227,1228,1229,1230,1464,1465,989,989,990,991,992,1225,1226,1227,989,990,991,992,993,994,1228,1229,989,990,1236,1237,1238,1461,1000,1001,1002,1461,1000,1000,1001,1002,1237,1238,2187,2188,2189,2190,2191,2192,2193,2194,2195,2196,2197,2198,1000,1001,1002,1001,1002,1236,1000,1001,1002,
1653,1654,1655,1656,1657,1658,1659,1660,1661,1662,1663,1664,1665,1666,1667,1653,1654,1655,1656,1657,1658,1659,1660,1661,1662,1663,1664,1665,1666,1667,1701,1702,1703,1704,1705,1706,1707,1708,1709,1710,1711,1712,1701,1702,1703,1704,1705,1706,1707,1708,1709,1710,1711,1712,1713,1701,1702,1703,1704,1705,1706,1707,1708,1709,1710,1711,1712,1713,1701,1702,1703,1704,1705,1706,1707,1708,1709,1236,1000,1001,1002,1002,1226,1227,1228,1229,1230,2147484631,989,1236,1237,1238,1238,1238,1462,1463,1464,1236,1237,1238,990,991,992,993,994,990,991,992,993,989,990,991,992,989,990,991,992,1225,1225,1226,989,990,991,992,993,994,992,993,994,994,1230,989,990,1225,1226,1227,1000,1001,1002,1000,1001,1002,1000,1236,1236,1237,1238,1237,1238,1461,989,989,990,991,992,993,994,1466,1000,1001,1002,1236,1237,1238,1237,1238,1000,1236,1237,1238,
1889,1890,1891,1892,1893,1894,1895,1896,1897,1898,1899,1900,1901,1902,1903,1889,1890,1891,1892,1893,1894,1895,1896,1897,1898,1899,1900,1901,1902,1903,1937,1938,1939,1940,1941,1942,1943,1944,1945,1946,1947,1948,1937,1938,1939,1940,1941,1942,1943,1944,1945,1946,1947,1948,1949,1937,1938,1939,1940,1941,1942,1943,1944,1945,1946,1947,1948,1949,1937,1938,1939,1940,1941,1942,1943,1944,1945,1946,1236,1237,1238,1238,989,989,990,991,992,993,1225,1226,1227,1228,989,989,990,991,992,993,994,1225,1226,1227,1228,1229,1230,1226,1227,1228,1229,1225,1226,1227,1228,1225,1226,1227,1228,1461,1461,1462,1225,1226,1227,1228,1229,1230,1228,1229,989,989,990,991,992,1461,1462,1463,1236,1237,1238,1236,1237,1238,1236,1237,1000,1001,1002,1000,1000,1001,1000,1000,1001,1002,1228,1229,1000,1001,1236,1237,1238,1002,1001,1002,1000,1001,1236,1236,1237,1238,
2125,2126,2127,2128,2129,2130,2131,2132,2133,2134,2135,2136,2137,2138,2139,2125,2126,2127,2128,2129,2130,2131,2132,2133,2134,2135,2136,2137,2138,2139,2173,2174,2175,2176,2177,2178,2179,2180,2181,2182,2183,2184,2173,2174,2175,2176,2177,2178,2179,2180,2181,2182,2183,2184,2185,2173,2174,2175,2176,2177,2178,2179,2180,2181,2182,2183,2184,2185,2173,2174,2175,2176,2177,2178,2179,2180,2181,2182,2183,1236,1237,1238,1225,1225,1226,1227,1228,1229,1000,1001,1002,1464,1225,1225,1226,1227,1228,1229,1230,1461,1462,1463,1464,1465,1466,1462,1463,1464,1465,1461,1462,1463,1464,1461,1462,1463,1464,1465,1466,1464,1461,1462,1463,1464,1465,1466,1464,1465,1225,1225,1226,1227,1228,1229,1000,1001,1236,1237,1238,1461,1462,1463,1464,1465,1236,1237,1238,1236,1236,1237,1236,1236,1237,1238,1464,1465,1236,1237,1236,1236,1237,1238,1237,1238,1236,1237,1238,1237,1238,1461
</data>
 </layer>
</map>
